public/img/icons/dislike.svg

<svg xmlns="http://www.w3.org/2000/svg" width="400" height="400.56" xmlns:v="https://vecta.io/nano"><path d="M155.742 46.847C119.59 49.013 96.63 58.993 87.964 76.308c-2.983 5.959-3.039 6.528-1.801 18.174l1.081 10.168-6.561 6.638c-9.232 9.343-10.868 15.589-9.066 34.62l.581 6.132-3.553 3.766c-10.152 10.762-12.1 27.857-4.467 39.199 1.085 1.614 1.774 3.104 1.531 3.313s-1.955 1.524-3.804 2.922c-10.97 8.297-14.546 16.982-11.807 28.678 4.618 19.719 20.674 23.853 71.191 18.331l19.458-2.005 4.332-.351-.256 1.563c-.141.86-.538 4.269-.884 7.575-.581 5.566-.909 6.647-4.423 14.592-19.952 45.105-21.364 75.64-4.282 92.585 7.456 7.397 13.986 9.191 21.471 5.901 4.141-1.82 3.906-.695 4.62-22.171.912-27.43.91-27.414 4.639-35.17 6.22-12.936 9.689-17.176 32.873-40.18 19.329-19.178 21.033-21.105 31.711-35.852 29.178-40.294 41.245-48.264 73.374-48.459 27.154-.166 32.967-4.739 39.495-31.07 6.617-26.69 7.266-55.682 1.569-70.053-10.674-26.924-26.133-37.296-53.109-35.633l-19.048 1.236c-17.029 1.127-35.851.82-49.86-.814-21.52-2.509-52.898-3.954-67.227-3.096" fill-rule="evenodd"/></svg>

<svg id="svg" xmlns="http://www.w3.org/2000/svg" xmlns:xlink="http://www.w3.org/1999/xlink" width="400" height="400.5602240896358" viewBox="0, 0, 400,400.5602240896358"><g id="svgg"><path id="path0" d="M155.742 46.847 C 119.590 49.013,96.630 58.993,87.964 76.308 C 84.981 82.267,84.925 82.836,86.163 94.482 L 87.244 104.650 80.683 111.288 C 71.451 120.631,69.815 126.877,71.617 145.908 L 72.198 152.040 68.645 155.806 C 58.493 166.568,56.545 183.663,64.178 195.005 C 65.263 196.619,65.952 198.109,65.709 198.318 C 65.465 198.527,63.754 199.842,61.905 201.240 C 50.935 209.537,47.359 218.222,50.098 229.918 C 54.716 249.637,70.772 253.771,121.289 248.249 C 129.608 247.339,138.364 246.437,140.747 246.244 L 145.079 245.893 144.823 247.456 C 144.682 248.316,144.285 251.725,143.939 255.031 C 143.358 260.597,143.030 261.678,139.516 269.623 C 119.564 314.728,118.152 345.263,135.234 362.208 C 142.690 369.605,149.220 371.399,156.705 368.109 C 160.846 366.289,160.611 367.414,161.325 345.938 C 162.237 318.508,162.235 318.524,165.964 310.768 C 172.184 297.832,175.653 293.592,198.837 270.588 C 218.166 251.410,219.870 249.483,230.548 234.736 C 259.726 194.442,271.793 186.472,303.922 186.277 C 331.076 186.111,336.889 181.538,343.417 155.207 C 350.034 128.517,350.683 99.525,344.986 85.154 C 334.312 58.230,318.853 47.858,291.877 49.521 C 288.950 49.701,280.378 50.258,272.829 50.757 C 255.800 51.884,236.978 51.577,222.969 49.943 C 201.449 47.434,170.071 45.989,155.742 46.847 " stroke="none" fill="#000000" fill-rule="evenodd"></path></g></svg>
